platform/icons/src/expui/nodes/pluginJB_dark.svg

<svg width="16" height="16" viewBox="0 0 16 16" fill="none" xmlns="http://www.w3.org/2000/svg">
<path fill-rule="evenodd" clip-rule="evenodd" d="M6.47991 3C4.75991 3 3.29991 4.18 2.89991 5.78H0.929906C0.418906 5.78 0.00390625 6.195 0.00390625 6.706V8.556C0.00390625 9.067 0.418906 9.482 0.929906 9.482H2.89991C3.31091 11.082 4.75991 12.262 6.47991 12.262H8.32991V11.336H6.47991C4.93991 11.336 3.69991 10.096 3.69991 8.556V6.706C3.69991 5.166 4.93991 3.926 6.47991 3.926H10.1899V8.556H11.1159V5.776H14.3559C14.6119 5.776 14.8189 5.568 14.8189 5.313C14.8189 5.057 14.6109 4.85 14.3559 4.85H11.1159V3.924C11.1159 3.413 10.7009 2.998 10.1899 2.998L6.47991 3ZM0.919906 6.71H2.76991V8.56H0.919906V6.71Z" fill="#CED0D6"/>
<path d="M10.5 14C10.3674 14 10.2402 14.0527 10.1464 14.1464C10.0527 14.2402 10 14.3674 10 14.5C10 14.6326 10.0527 14.7598 10.1464 14.8536C10.2402 14.9473 10.3674 15 10.5 15H12.5C12.6326 15 12.7598 14.9473 12.8536 14.8536C12.9473 14.7598 13 14.6326 13 14.5C13 14.3674 12.9473 14.2402 12.8536 14.1464C12.7598 14.0527 12.6326 14 12.5 14H10.5Z" fill="white"/>
<path d="M15 9H10C9.44772 9 9 9.44772 9 10V15C9 15.5523 9.44772 16 10 16H15C15.5523 16 16 15.5523 16 15V10C16 9.44772 15.5523 9 15 9Z" fill="black"/>
<path d="M10.5 14.5H12.5" stroke="white" stroke-linecap="round" stroke-linejoin="round"/>
</svg>

<!-- Copyright 2000-2024 JetBrains s.r.o. and contributors. Use of this source code is governed by the Apache 2.0 license. -->
<svg fill="none" width="16" height="16" viewBox="0 0 16 16" xmlns="http://www.w3.org/2000/svg">
  <path d="m6.48 3c-1.72 0-3.18 1.18-3.58 2.78h-1.97c-0.511 0-0.926 0.415-0.926 0.926v1.85c0 0.511 0.415 0.926 0.926 0.926h1.97c0.411 1.6 1.86 2.78 3.58 2.78h1.85v-0.926h-1.85c-1.54 0-2.78-1.24-2.78-2.78v-1.85c0-1.54 1.24-2.78 2.78-2.78h3.71v4.63h0.926v-2.78h3.24c0.256 0 0.463-0.208 0.463-0.463 0-0.256-0.208-0.463-0.463-0.463h-3.24v-0.926c0-0.511-0.415-0.926-0.926-0.926zm-5.56 3.71h1.85v1.85h-1.85z" clip-rule="evenodd" fill="#CED0D6" fill-rule="evenodd"/>
  <path d="m10.5 14a0.5 0.5 0 0 0-0.5 0.5 0.5 0.5 0 0 0 0.5 0.5h2a0.5 0.5 0 0 0 0.5-0.5 0.5 0.5 0 0 0-0.5-0.5z" fill="#fff" stroke-linecap="round" stroke-linejoin="round"/>
  <rect x="9" y="9" width="7" height="7" rx="1" fill="#000"/>
  <path d="m10.5 14.5h2" stroke="#fff" stroke-linecap="round" stroke-linejoin="round"/>
</svg>
